icons-dark/mimetypes/16/text-x-pascal.svg

<svg width="16" xmlns="http://www.w3.org/2000/svg" height="16" viewBox="0 0 16 16">
 <path fill="#e00a5e" d="m7 2v12h1v-6.05c.635.648 1.517 1.053 2.5 1.053 1.939 0 3.5-1.561 3.5-3.5 0-1.939-1.561-3.5-3.5-3.5-.983 0-1.865.404-2.5 1.053v-1.053zm3.5 1c1.385 0 2.5 1.115 2.5 2.5 0 1.385-1.115 2.5-2.5 2.5-1.385 0-2.5-1.115-2.5-2.5 0-1.385 1.115-2.5 2.5-2.5m-7.5 4a1 1 0 0 0 -1 1 1 1 0 0 0 1 1 1 1 0 0 0 1 -1 1 1 0 0 0 -1 -1"/>
</svg>

<?xml version="1.0" encoding="UTF-8" standalone="no"?>

<!-- Created with Inkscape (http://www.inkscape.org/) -->
<svg width="16" version="1.1" xmlns="http://www.w3.org/2000/svg" height="16" viewBox="0 0 16 16" xmlns:inkscape="http://www.inkscape.org/namespaces/inkscape">
 <defs id="defs4"/>
 <metadata id="metadata7"/>
 <path inkscape:label="Capa 1" inkscape:groupmode="layer" style="fill:#e00a5e" id="path4139" d="M 7 2 L 7 5.5 L 7 14 L 8 14 L 8 7.9472656 C 8.6345666 8.5955628 9.5169586 9 10.5 9 C 12.439 9 14 7.439 14 5.5 C 14 3.561 12.439 2 10.5 2 C 9.5169586 2 8.6345666 2.4044372 8 3.0527344 L 8 2 L 7 2 z M 10.5 3 C 11.885 3 13 4.115 13 5.5 C 13 6.885 11.885 8 10.5 8 C 9.115 8 8 6.885 8 5.5 C 8 4.115 9.115 3 10.5 3 z M 3 7 A 1 1 0 0 0 2 8 A 1 1 0 0 0 3 9 A 1 1 0 0 0 4 8 A 1 1 0 0 0 3 7 z "/>
</svg>
